X: 31557
T: Pádraig O'Keeffe's
R: polka
M: 2/4
K: Gmajor
e|:dB ce|d2 d>e|dB GB|A2 AB/A/|
GA Bd|eg b2|a/b/a/g/ ef|1 g2 g>e:|2 g2 gf||
|:e2 ed|ef g>e|dB GB|A2 AB/A/|
GA Bd|eg b2|a/b/a/g/ ef|1 g2 gf:|2 g2 g>e||

